docs/images/facebook.svg

<svg width="10" height="18" viewBox="0 0 10 18" fill="none" xmlns="http://www.w3.org/2000/svg">
<path d="M6.125 6.1875V3.9375C6.125 3.3165 6.629 2.8125 7.25 2.8125H8.375V0H6.125C4.26087 0 2.75 1.51088 2.75 3.375V6.1875H0.5V9H2.75V18H6.125V9H8.375L9.5 6.1875H6.125Z" fill="white"/>
</svg>

<svg width="10" height="18" fill="none" xmlns="http://www.w3.org/2000/svg"><path d="M6.125 6.188v-2.25c0-.622.504-1.126 1.125-1.126h1.125V0h-2.25A3.375 3.375 0 002.75 3.375v2.813H.5V9h2.25v9h3.375V9h2.25L9.5 6.187H6.125z" fill="#fff"/></svg>
